img/foundation-icons/fi-social-instagram.svg

<svg xmlns="http://www.w3.org/2000/svg" width="100" height="100" viewBox="0 0 100 100"><g fill="#231F20"><path d="M67.96 45.288c0 9.92-8.04 17.96-17.96 17.96-9.918 0-17.96-8.04-17.96-17.96 0-2.795.658-5.43 1.796-7.788H14v42c0 3.85 3.15 7 7 7h58c3.85 0 7-3.15 7-7v-42H66.165a17.848 17.848 0 0 1 1.796 7.788zM79 13.5H21c-3.85 0-7 3.15-7 7v14h21.665c3.278-4.35 8.47-7.172 14.335-7.172S61.057 30.15 64.335 34.5H86v-14c0-3.85-3.15-7-7-7zM19.756 31.216H17.15V21.12a4.253 4.253 0 0 1 2.607-3.92v14.016zm4.27 0h-2.47V16.868h2.47v14.348zm4.27 0h-2.47V16.868h2.47v14.348zM32.56 21.12v10.096h-2.465V16.868h2.466v4.253zm49.79 5.843a4.252 4.252 0 0 1-4.25 4.253h-6.91a4.252 4.252 0 0 1-4.25-4.253V21.12a4.252 4.252 0 0 1 4.25-4.252h6.91a4.25 4.25 0 0 1 4.25 4.253v5.843z"/><path d="M50 61.148c8.737 0 15.82-7.085 15.82-15.82 0-8.734-7.082-15.82-15.82-15.82-8.737 0-15.82 7.086-15.82 15.82S41.264 61.15 50 61.15zm0-28.423c6.96 0 12.604 5.643 12.604 12.604 0 6.96-5.643 12.603-12.604 12.603S37.396 52.29 37.396 45.33c0-6.963 5.644-12.605 12.604-12.605z"/></g></svg>

<?xml version="1.0" encoding="utf-8"?>
<!-- Generator: Adobe Illustrator 17.0.0, SVG Export Plug-In . SVG Version: 6.00 Build 0)  -->
<!DOCTYPE svg PUBLIC "-//W3C//DTD SVG 1.1//EN" "http://www.w3.org/Graphics/SVG/1.1/DTD/svg11.dtd">
<svg version="1.1" id="Layer_1" xmlns="http://www.w3.org/2000/svg" xmlns:xlink="http://www.w3.org/1999/xlink" x="0px" y="0px"
	 width="100px" height="100px" viewBox="0 0 100 100" enable-background="new 0 0 100 100" xml:space="preserve">
<g>
	<path fill="#231F20" d="M67.961,45.288c0,9.919-8.041,17.96-17.96,17.96c-9.919,0-17.96-8.041-17.96-17.96
		c0-2.795,0.657-5.43,1.795-7.788H14v42c0,3.85,3.15,7,7,7h58c3.85,0,7-3.15,7-7v-42H66.165
		C67.304,39.858,67.961,42.493,67.961,45.288z"/>
	<path fill="#231F20" d="M79,13.5H21c-3.85,0-7,3.15-7,7v14h21.665c3.278-4.349,8.47-7.172,14.335-7.172s11.057,2.823,14.335,7.172
		H86v-14C86,16.65,82.85,13.5,79,13.5z M19.756,31.216H17.15V21.121c0-1.766,1.076-3.279,2.607-3.922V31.216z M24.026,31.216h-2.469
		V16.868h2.469V31.216z M28.295,31.216h-2.469V16.868h2.469V31.216z M32.561,21.121v5.842v4.253h-2.466V16.868h2.466V21.121z
		 M82.351,26.963c0,2.35-1.904,4.253-4.251,4.253h-6.909c-2.348,0-4.252-1.903-4.252-4.253v-5.842c0-2.35,1.904-4.253,4.252-4.253
		h6.909c2.348,0,4.251,1.903,4.251,4.253V26.963z"/>
	<path fill="#231F20" d="M50.001,61.148c8.736,0,15.818-7.085,15.818-15.819c0-8.735-7.081-15.82-15.818-15.82
		c-8.738,0-15.82,7.085-15.82,15.82C34.181,54.062,41.263,61.148,50.001,61.148z M50,32.725c6.96,0,12.604,5.643,12.604,12.604
		c0,6.96-5.643,12.604-12.604,12.604s-12.604-5.643-12.604-12.604C37.397,38.367,43.04,32.725,50,32.725z"/>
</g>
</svg>
